X:745
T:Fire In the Mountains
B:Kerr's Guild of Play (n.d.)
Z:Nigel Gatherer
M:2/4
L:1/8
K:G
BB/B/ AG | BB A2 | dd/d/ BG | A/G/A/B/ G>G |
BB    AG | BB A2 | dd/d/ BG | AA       G2 |]
<end>
<start>
